dist/svgs/devui-icons/op/plan.svg

<?xml version="1.0" encoding="UTF-8"?>
<svg width="16px" height="16px" viewBox="0 0 16 16" version="1.1" xmlns="http://www.w3.org/2000/svg" xmlns:xlink="http://www.w3.org/1999/xlink">
    <title>操作/plan</title>
    <desc>Created with Sketch.</desc>
    <g id="操作/plan" stroke="none" stroke-width="1" fill="none" fill-rule="evenodd">
        <g id="plan" fill="#293040">
            <path d="M12,3 L14,3 C14.5522847,3 15,3.44771525 15,4 L15,14 C15,14.5522847 14.5522847,15 14,15 L2,15 C1.44771525,15 1,14.5522847 1,14 L1,4 C1,3.44771525 1.44771525,3 2,3 L4,3 L4,1 L6,1 L6,3 L10,3 L10,1 L12,1 L12,3 Z M4,6 L4,8 L12,8 L12,6 L4,6 Z M4,10 L4,12 L10,12 L10,10 L4,10 Z" id="形状"></path>
        </g>
    </g>
</svg>

<svg xmlns="http://www.w3.org/2000/svg" viewBox="0 0 16 16"><path fill-rule="evenodd" d="M12 3h2a1 1 0 011 1v10a1 1 0 01-1 1H2a1 1 0 01-1-1V4a1 1 0 011-1h2V1h2v2h4V1h2v2zM4 6v2h8V6H4zm0 4v2h6v-2H4z"/></svg>
